X: 38397
T: Star Of Munster, The
R: reel
M: 4/4
K: Aminor
ed|c2Ac B2GB|AGE^F GED=F|EAAB cBcd|eaa^f g=fed|
uppermordent!c2Ac !uppermordent!B2GB|AGE^F GED=F|EAAB cded|cAB^G A2z2||
eaab ageg|agbg age^f|{/a}g^fga gfef|gea^f g=fed|
eaab ageg|agbg age^f|!uppermordent!g2ge !uppermordent!a2ag|b2ba gfed||

